X:498
T:Vals efter Per Joel Berntsson 
T:(SvL Skåne nr. 498)
S:efter Per Joel Berndtsson
S:Svenska Låtar Skåne
B:Svenska Låtar Skåne
R:Vals
Z:Patrik Månsson, 2009-03-25
O:Skäralid, Skåne
N:Jämför + från Uppland
M:3/4
L:1/8
K:G
|: d2 | g2 (Bd) (cA) | G3 B AG | (FD) .F.A (cA) |
(GE) (GA) (Bd) | g2 (Bd) (cA) | G3 B AG | (FD) (FA) (cB) | G4 :|
|: (G2 | A)>(D F)>(A c)>(A | B)>(D G)>(B d)>(B | c)>(B c)>(e g)>(e | d4) B2 |
(cB) (ce) (ge) | (dB) (GB) (dB) | (cA) (FA) (DF) | G4 :|

